assets/American football/Flat/american_football_flat.svg

<svg width="32" height="32" viewBox="0 0 32 32" fill="none" xmlns="http://www.w3.org/2000/svg">
<path d="M29.7277 6.02435C31.9781 19.9443 19.9458 31.9843 6.02306 29.7243C4.09269 29.4143 2.58239 27.9043 2.27233 25.9743C0.021895 12.0543 12.0542 0.0143486 25.9769 2.27435C27.8973 2.58435 29.4076 4.09435 29.7277 6.02435Z" fill="#6D4534"/>
<path d="M14.8642 3.5211L28.4773 17.1341C29.051 15.7337 29.4744 14.2579 29.7272 12.7272L19.2717 2.27167C17.7407 2.52403 16.2647 2.94734 14.8642 3.5211ZM17.3769 28.377L3.62331 14.6234C3.03592 16.0066 2.59583 17.4655 2.32312 18.98L13.0199 29.6768C14.5346 29.4044 15.9936 28.9644 17.3769 28.377Z" fill="#D3D3D3"/>
<path d="M19.1187 10.3813C18.777 10.0396 18.223 10.0396 17.8813 10.3813C17.5396 10.723 17.5396 11.277 17.8813 11.6187L19.8813 13.6187C20.223 13.9604 20.777 13.9604 21.1187 13.6187C21.4604 13.277 21.4604 12.723 21.1187 12.3813L19.1187 10.3813ZM15.3813 12.8813C15.723 12.5396 16.277 12.5396 16.6187 12.8813L18.6187 14.8813C18.9604 15.223 18.9604 15.777 18.6187 16.1187C18.277 16.4604 17.723 16.4604 17.3813 16.1187L15.3813 14.1187C15.0396 13.777 15.0396 13.223 15.3813 12.8813ZM14.1187 15.3813C13.777 15.0396 13.223 15.0396 12.8813 15.3813C12.5396 15.723 12.5396 16.277 12.8813 16.6187L14.8813 18.6187C15.223 18.9604 15.777 18.9604 16.1187 18.6187C16.4604 18.277 16.4604 17.723 16.1187 17.3813L14.1187 15.3813ZM11.6187 17.8813C11.277 17.5396 10.723 17.5396 10.3813 17.8813C10.0396 18.223 10.0396 18.777 10.3813 19.1187L12.3813 21.1187C12.723 21.4604 13.277 21.4604 13.6187 21.1187C13.9604 20.777 13.9604 20.223 13.6187 19.8813L11.6187 17.8813Z" fill="white"/>
</svg>

<svg xmlns="http://www.w3.org/2000/svg" width="32" height="32" fill="none"><path fill="#6D4534" d="M29.728 6.024c2.25 13.92-9.782 25.96-23.705 23.7a4.522 4.522 0 0 1-3.75-3.75C.021 12.054 12.053.014 25.976 2.274c1.92.31 3.43 1.82 3.75 3.75Z"/><path fill="#D3D3D3" d="m14.864 3.521 13.613 13.613a20.38 20.38 0 0 0 1.25-4.407L19.272 2.272a20.353 20.353 0 0 0-4.408 1.25Zm2.513 24.856L3.623 14.623a20.383 20.383 0 0 0-1.3 4.357L13.02 29.677a20.365 20.365 0 0 0 4.357-1.3Z"/><path fill="#fff" d="M19.119 10.381a.875.875 0 1 0-1.238 1.238l2 2a.875.875 0 1 0 1.238-1.238l-2-2Zm-3.738 2.5a.875.875 0 0 1 1.238 0l2 2a.875.875 0 1 1-1.238 1.238l-2-2a.875.875 0 0 1 0-1.238Zm-1.262 2.5a.875.875 0 1 0-1.238 1.238l2 2a.875.875 0 1 0 1.238-1.238l-2-2Zm-2.5 2.5a.875.875 0 1 0-1.238 1.238l2 2a.875.875 0 1 0 1.238-1.238l-2-2Z"/></svg>
